assets/icons/icon_social_Insta.svg

<?xml version="1.0" encoding="UTF-8"?>
<svg width="34px" height="34px" viewBox="0 0 34 34" version="1.1" xmlns="http://www.w3.org/2000/svg" xmlns:xlink="http://www.w3.org/1999/xlink">
    <!-- Generator: Sketch 59.1 (86144) - https://sketch.com -->
    <title>Shape</title>
    <desc>Created with Sketch.</desc>
    <g id="Welcome" stroke="none" stroke-width="1" fill="none" fill-rule="evenodd" opacity="0.7">
        <g id="portfolio-desktop" transform="translate(-184.000000, -16.000000)" fill="#6097DF">
            <g id="nav-bar" transform="translate(0.000000, -1.000000)">
                <g id="social-media-copy" transform="translate(133.000000, 17.000000)">
                    <g id="instagram" transform="translate(51.000000, 0.000000)">
                        <path d="M29.8460234,0 C32.1386992,0 34,1.86136719 34,4.15397656 L34,29.8460234 C34,32.1386328 32.1386328,34 29.8460234,34 L4.15397656,34 C1.86136719,34 0,32.1386328 0,29.8460234 L0,4.15397656 C0,1.86136719 1.86130078,0 4.15397656,0 L29.8460234,0 Z M17,5.37890625 C13.8439102,5.37890625 13.4481289,5.39225391 12.2086562,5.44883203 C10.971707,5.50527734 10.1269531,5.70170703 9.38771875,5.98904687 C8.62351562,6.28601562 7.97545703,6.68339062 7.32939062,7.32939062 C6.68332422,7.97545703 6.28594922,8.62358203 5.98898047,9.38771875 C5.70170703,10.1269531 5.50527734,10.971707 5.44876562,12.2086562 C5.39225391,13.4481289 5.37890625,13.8439102 5.37890625,17 C5.37890625,20.1560898 5.39225391,20.5518711 5.44876562,21.7913437 C5.50527734,23.028293 5.70170703,23.8730469 5.98898047,24.6122812 C6.28594922,25.376418 6.68332422,26.024543 7.32939062,26.6706094 C7.97545703,27.3166758 8.62351562,27.7140508 9.38771875,28.0110195 C10.1269531,28.298293 10.971707,28.4947227 12.2086562,28.551168 C13.4481289,28.6077461 13.8439102,28.6210937 17,28.6210937 C20.1560898,28.6210937 20.5518711,28.6077461 21.7913437,28.551168 C23.028293,28.4947227 23.8730469,28.298293 24.6122812,28.0110195 C25.376418,27.7140508 26.024543,27.3166758 26.6706094,26.6706094 C27.3166758,26.024543 27.7140508,25.376418 28.0110195,24.6122812 C28.298293,23.8730469 28.4947227,23.028293 28.551168,21.7913437 C28.6077461,20.5518711 28.6210937,20.1560898 28.6210937,17 C28.6210937,13.8439102 28.6077461,13.4481289 28.551168,12.2086562 C28.4947227,10.971707 28.298293,10.1269531 28.0110195,9.38771875 C27.7140508,8.62358203 27.3166758,7.97545703 26.6706094,7.32939062 C26.024543,6.68339062 25.376418,6.28601562 24.6122812,5.98904687 C23.8730469,5.70170703 23.028293,5.50527734 21.7913437,5.44883203 C20.5518711,5.39225391 20.1560898,5.37890625 17,5.37890625 Z M17,7.47282812 C20.1029648,7.47282812 20.4705234,7.48464844 21.695918,7.5405625 C22.8289414,7.59229297 23.4442617,7.78161719 23.8537891,7.94066016 C24.3962617,8.1515 24.7833437,8.40337891 25.1900156,8.80998437 C25.5966875,9.21665625 25.8485,9.60380469 26.0593398,10.1462109 C26.2184492,10.5557383 26.4077734,11.1710586 26.4594375,12.304082 C26.5153516,13.5294766 26.5272383,13.8970352 26.5272383,17 C26.5272383,20.1029648 26.5153516,20.4705234 26.4594375,21.695918 C26.4077734,22.8289414 26.2184492,23.4442617 26.0593398,23.8537891 C25.8485,24.3962617 25.5966875,24.7833437 25.1900156,25.1900156 C24.7833437,25.5966875 24.3962617,25.8485 23.8537891,26.0593398 C23.4442617,26.2184492 22.8289414,26.4077734 21.695918,26.4594375 C20.4707227,26.5153516 20.1031641,26.5272383 17,26.5272383 C13.8968359,26.5272383 13.5293437,26.5153516 12.304082,26.4594375 C11.1710586,26.4077734 10.5557383,26.2184492 10.1462109,26.0593398 C9.60373828,25.8485 9.21665625,25.5966875 8.80998437,25.1900156 C8.4033125,24.7833437 8.15143359,24.3962617 7.94066016,23.8537891 C7.78155078,23.4442617 7.59222656,22.8289414 7.54049609,21.695918 C7.48458203,20.4705234 7.47276172,20.1029648 7.47276172,17 C7.47276172,13.8970352 7.48458203,13.5294766 7.54049609,12.304082 C7.59222656,11.1710586 7.78155078,10.5557383 7.94066016,10.1462109 C8.15143359,9.60380469 8.4033125,9.21665625 8.80998437,8.80998437 C9.21665625,8.40337891 9.60373828,8.1515 10.1462109,7.94066016 C10.5557383,7.78161719 11.1710586,7.59229297 12.304082,7.5405625 C13.5294766,7.48464844 13.8970352,7.47282812 17,7.47282812 Z M17,11.0324023 C13.7041914,11.0324023 11.0324023,13.7041914 11.0324023,17 C11.0324023,20.2958086 13.7041914,22.9675977 17,22.9675977 C20.2958086,22.9675977 22.9675977,20.2958086 22.9675977,17 C22.9675977,13.7041914 20.2958086,11.0324023 17,11.0324023 Z M17,20.8736758 C14.8605898,20.8736758 13.1263242,19.1394102 13.1263242,17 C13.1263242,14.8605898 14.8605898,13.1263242 17,13.1263242 C19.1394102,13.1263242 20.8736758,14.8605898 20.8736758,17 C20.8736758,19.1394102 19.1394102,20.8736758 17,20.8736758 L17,20.8736758 Z M24.5979375,10.7966602 C24.5979375,11.5668398 23.9735195,12.191125 23.2033398,12.191125 C22.4332266,12.191125 21.808875,11.5668398 21.808875,10.7966602 C21.808875,10.0264805 22.4332266,9.40212891 23.2033398,9.40212891 C23.9735195,9.40212891 24.5979375,10.0264805 24.5979375,10.7966602 Z" id="Shape"></path>
                    </g>
                </g>
            </g>
        </g>
    </g>
</svg>

<svg width="34" height="34" xmlns="http://www.w3.org/2000/svg"><path d="M29.846 0A4.156 4.156 0 0134 4.154v25.692A4.156 4.156 0 0129.846 34H4.154A4.156 4.156 0 010 29.846V4.154A4.156 4.156 0 014.154 0h25.692zM17 5.379c-3.156 0-3.552.013-4.791.07-1.237.056-2.082.253-2.821.54a5.697 5.697 0 00-2.059 1.34 5.697 5.697 0 00-1.34 2.059c-.287.739-.484 1.584-.54 2.82-.057 1.24-.07 1.636-.07 4.792 0 3.156.013 3.552.07 4.791.056 1.237.253 2.082.54 2.821a5.697 5.697 0 001.34 2.059 5.696 5.696 0 002.059 1.34c.739.287 1.584.484 2.82.54 1.24.057 1.636.07 4.792.07 3.156 0 3.552-.013 4.791-.07 1.237-.056 2.082-.253 2.821-.54a5.697 5.697 0 002.059-1.34 5.697 5.697 0 001.34-2.059c.287-.739.484-1.584.54-2.82.057-1.24.07-1.636.07-4.792 0-3.156-.013-3.552-.07-4.791-.056-1.237-.253-2.082-.54-2.821a5.697 5.697 0 00-1.34-2.059 5.697 5.697 0 00-2.059-1.34c-.739-.287-1.584-.484-2.82-.54-1.24-.057-1.636-.07-4.792-.07zm0 2.094c3.103 0 3.47.012 4.696.068 1.133.051 1.748.24 2.158.4.542.21.93.462 1.336.869.407.407.659.794.87 1.336.158.41.348 1.025.4 2.158.055 1.225.067 1.593.067 4.696 0 3.103-.012 3.47-.068 4.696-.051 1.133-.24 1.748-.4 2.158a3.6 3.6 0 01-.869 1.336 3.6 3.6 0 01-1.336.87c-.41.158-1.025.348-2.158.4-1.225.055-1.593.067-4.696.067-3.103 0-3.47-.012-4.696-.068-1.133-.051-1.748-.24-2.158-.4a3.6 3.6 0 01-1.336-.869 3.6 3.6 0 01-.87-1.336c-.158-.41-.348-1.025-.4-2.158-.055-1.225-.067-1.593-.067-4.696 0-3.103.012-3.47.067-4.696.052-1.133.242-1.748.4-2.158a3.6 3.6 0 01.87-1.336 3.601 3.601 0 011.336-.87c.41-.158 1.025-.348 2.158-.4 1.225-.055 1.593-.067 4.696-.067zm0 3.56a5.968 5.968 0 100 11.935 5.968 5.968 0 000-11.936zm0 9.84a3.874 3.874 0 110-7.747 3.874 3.874 0 010 7.748zm7.598-10.076a1.395 1.395 0 11-2.79 0 1.395 1.395 0 012.79 0z" fill="#6097DF" fill-rule="evenodd" opacity=".7"/></svg>
